X: 10103
T: The COCK OF THE NORTH
T: (An honorary title of the Duke of Gordon.)
Q: "Strathspey style."
%R: strathspey
B: W. Hamilton "Universal Tune-Book" Vol. 1 Glasgow 1844 p.10 #3
S: http://imslp.org/wiki/Hamilton's_Universal_Tune-Book_(Various)
Z: 2016 John Chambers <jc:trillian.mit.edu>
M: C
L: 1/16
K: Bb
% - - - - - - - - - - - - - - - - - - - - - - - - -
d2 |\
BB,3 B,B,B,2 F3B,Dd3 | BB,3 D2Bd c3AB3G |\
F3B, B,2B,B, F3B,DB3 | CC3 D3F G4 G2 :|\
d2 |\
B3fdf3 FB3D3B | Bf3d3f Tg3Bfd3 |
B3fdf3 FB3D3B | CC3 D3F G4 G2d2 |\
B3fdf3 | FB3D3d | Bf3d3f Tg3Bfb3 |\
fd3 {Bc}d3B c3ABd3 | CC3 D3F G4 G2 |]
% - - - - - - - - - - - - - - - - - - - - - - - - -

%%sep 1 1 500
%%sep 1 1 500

